;FLAVOR:Marlin
;TIME:15053
;Filament used: 21.7614m
;Layer height: 0.28
;MINX:9.3
;MINY:32.8
;MINZ:0.28
;MAXX:210.7
;MAXY:194.2
;MAXZ:7
;Generated with Cura_SteamEngine 4.12.0
M140 S60
M105
M190 S60
M104 S210
M105
M109 S210
M82 ;absolute extrusion mode
; Ender 3 Custom Start G-code
G92 E0 ; Reset Extruder
G28 ; Home all axes
G29;
G1 Z2.0 F3000 ; Move Z Axis up little to prevent scratching of Heat Bed
G1 X0.1 Y20 Z0.3 F5000.0 ; Move to start position
G1 X0.1 Y200.0 Z0.3 F1500.0 E15 ; Draw the first line
G1 X0.4 Y200.0 Z0.3 F5000.0 ; Move to side a little
G1 X0.4 Y20 Z0.3 F1500.0 E30 ; Draw the second line
G92 E0 ; Reset Extruder
G1 Z2.0 F3000 ; Move Z Axis up little to prevent scratching of Heat Bed
G1 X5 Y20 Z0.3 F5000.0 ; Move over to prevent blob squish
G92 E0
G92 E0
G1 F1500 E-6.5
;LAYER_COUNT:25
;LAYER:0
M107
G0 F6000 X23.184 Y63.968 Z0.28
;TYPE:SKIRT
G1 F1500 E0
G1 F900 X24.034 Y63.691 E0.06244
G1 X26.321 Y63.142 E0.22672
G1 X27.204 Y63.003 E0.28915
G1 X29.553 Y62.818 E0.45373
G1 X30.001 Y62.8 E0.48505
G1 X114.782 Y62.8 E6.40668
G1 X115.666 Y62.731 E6.46862
G1 X116.327 Y62.572 E6.5161
G1 X116.943 Y62.317 E6.56267
G1 X117.517 Y61.965 E6.6097
G1 X118.029 Y61.527 E6.65676
G1 X118.466 Y61.016 E6.70372
G1 X118.817 Y60.443 E6.75066
G1 X119.074 Y59.823 E6.79753
G1 X119.23 Y59.17 E6.84443
G1 X119.3 Y58.282 E6.90664
G1 X119.3 Y45.501 E7.79935
G1 X119.317 Y45.056 E7.83045
G1 X119.403 Y43.959 E7.90731
G1 X119.544 Y43.072 E7.97004
G1 X119.8 Y42.007 E8.04654
G1 X120.074 Y41.161 E8.10866
G1 X120.494 Y40.145 E8.18544
G1 X120.903 Y39.343 E8.24833
G1 X121.477 Y38.407 E8.32502
G1 X121.999 Y37.688 E8.38707
G1 X122.712 Y36.852 E8.46382
G1 X123.349 Y36.215 E8.52674
G1 X124.187 Y35.5 E8.60368
G1 X124.906 Y34.977 E8.66578
G1 X125.84 Y34.404 E8.74232
G1 X126.643 Y33.995 E8.80526
G1 X127.659 Y33.575 E8.88205
G1 X128.502 Y33.301 E8.94396
G1 X129.569 Y33.044 E9.02062
G1 X130.459 Y32.903 E9.08355
G1 X131.556 Y32.817 E9.16041
G1 X132.001 Y32.8 E9.19152
G1 X203.499 Y32.8 E14.18538
G1 X203.931 Y32.816 E14.21558
G1 X204.168 Y32.834 E14.23218
G1 X205.073 Y32.977 E14.29618
G1 X205.301 Y33.032 E14.31256
G1 X206.136 Y33.303 E14.37387
G1 X206.352 Y33.392 E14.39019
G1 X207.155 Y33.8 E14.4531
G1 X207.356 Y33.923 E14.46956
G1 X208.085 Y34.452 E14.53247
G1 X208.264 Y34.605 E14.54892
G1 X208.889 Y35.23 E14.61066
G1 X209.044 Y35.411 E14.6273
G1 X209.574 Y36.14 E14.69025
G1 X209.696 Y36.339 E14.70656
G1 X210.102 Y37.134 E14.76891
G1 X210.192 Y37.351 E14.78531
G1 X210.469 Y38.204 E14.84796
G1 X210.524 Y38.433 E14.86441
G1 X210.665 Y39.329 E14.92776
G1 X210.683 Y39.564 E14.94422
G1 X210.7 Y39.999 E14.97463
G1 X210.7 Y186.999 E25.24203
G1 X210.684 Y187.431 E25.27222
G1 X210.666 Y187.668 E25.28883
G1 X210.526 Y188.561 E25.35196
G1 X210.472 Y188.787 E25.36819
G1 X210.197 Y189.637 E25.43059
G1 X210.107 Y189.855 E25.44706
G1 X209.7 Y190.655 E25.50975
G1 X209.577 Y190.856 E25.52621
G1 X209.048 Y191.585 E25.58912
G1 X208.895 Y191.764 E25.60557
G1 X208.268 Y192.391 E25.66751
G1 X208.088 Y192.545 E25.68405
G1 X207.368 Y193.069 E25.74625
G1 X207.168 Y193.192 E25.76265
G1 X206.357 Y193.606 E25.82625
G1 X206.139 Y193.696 E25.84272
G1 X205.301 Y193.968 E25.90426
G1 X205.073 Y194.023 E25.92064
G1 X204.168 Y194.166 E25.98463
G1 X203.931 Y194.184 E26.00124
G1 X203.499 Y194.2 E26.03143
G1 X132.001 Y194.2 E31.0253
G1 X131.556 Y194.183 E31.0564
G1 X130.459 Y194.097 E31.13326
G1 X129.569 Y193.956 E31.1962
G1 X128.502 Y193.699 E31.27286
G1 X127.659 Y193.425 E31.33477
G1 X126.643 Y193.005 E31.41156
G1 X125.839 Y192.595 E31.47459
G1 X124.904 Y192.021 E31.55122
G1 X124.187 Y191.5 E31.61313
G1 X123.35 Y190.786 E31.68997
G1 X122.714 Y190.15 E31.75279
G1 X122.001 Y189.315 E31.82949
G1 X121.476 Y188.592 E31.89189
G1 X120.902 Y187.655 E31.96864
G1 X120.494 Y186.855 E32.03137
G1 X120.074 Y185.839 E32.10816
G1 X119.8 Y184.993 E32.17027
G1 X119.544 Y183.928 E32.24677
G1 X119.403 Y183.042 E32.30944
G1 X119.317 Y181.947 E32.38615
G1 X119.3 Y181.501 E32.41733
G1 X119.3 Y168.717 E33.31024
G1 X119.23 Y167.832 E33.37225
G1 X119.074 Y167.179 E33.41914
G1 X118.815 Y166.555 E33.46633
G1 X118.466 Y165.986 E33.51295
G1 X118.024 Y165.468 E33.56052
G1 X117.516 Y165.034 E33.60718
G1 X116.943 Y164.683 E33.65412
G1 X116.327 Y164.428 E33.70068
G1 X115.666 Y164.269 E33.74817
G1 X114.782 Y164.2 E33.8101
G1 X30.001 Y164.2 E39.73174
G1 X29.553 Y164.182 E39.76305
G1 X27.204 Y163.997 E39.92763
G1 X26.321 Y163.858 E39.99006
G1 X24.034 Y163.309 E40.15434
G1 X23.184 Y163.032 E40.21678
G1 X21.008 Y162.131 E40.38128
G1 X20.209 Y161.724 E40.44391
G1 X18.203 Y160.494 E40.60827
G1 X17.482 Y159.97 E40.67052
G1 X15.691 Y158.441 E40.835
G1 X15.057 Y157.807 E40.89763
G1 X13.529 Y156.017 E41.06201
G1 X13.004 Y155.294 E41.12442
G1 X11.774 Y153.287 E41.28883
G1 X11.368 Y152.49 E41.3513
G1 X10.467 Y150.314 E41.5158
G1 X10.19 Y149.462 E41.57838
G1 X9.642 Y147.177 E41.7425
G1 X9.503 Y146.296 E41.8048
G1 X9.318 Y143.949 E41.96923
G1 X9.3 Y143.501 E42.00055
G1 X9.3 Y83.501 E46.19133
G1 X9.318 Y83.053 E46.22264
G1 X9.503 Y80.704 E46.38722
G1 X9.642 Y79.823 E46.44952
G1 X10.19 Y77.538 E46.61364
G1 X10.467 Y76.686 E46.67622
G1 X11.368 Y74.51 E46.84072
G1 X11.774 Y73.713 E46.90319
G1 X13.004 Y71.706 E47.0676
G1 X13.529 Y70.983 E47.13001
G1 X15.057 Y69.193 E47.29439
G1 X15.691 Y68.559 E47.35702
G1 X17.483 Y67.029 E47.5216
G1 X18.205 Y66.504 E47.58395
G1 X20.21 Y65.275 E47.74821
G1 X21.008 Y64.869 E47.81074
G1 X23.184 Y63.968 E47.97524
G0 F6000 X23.414 Y64.522
G1 F900 X24.175 Y64.275 E48.03112
G1 X26.462 Y63.726 E48.1954
G1 X27.252 Y63.601 E48.25127
G1 X29.601 Y63.416 E48.41584
G1 X30.001 Y63.4 E48.4438
G1 X114.804 Y63.4 E54.36698
G1 X115.764 Y63.325 E54.43423
G1 X116.506 Y63.147 E54.48753
G1 X117.223 Y62.85 E54.54174
G1 X117.865 Y62.456 E54.59435
G1 X118.457 Y61.95 E54.64874
G1 X118.953 Y61.37 E54.70205
G1 X119.351 Y60.72 E54.75528
G1 X119.645 Y60.009 E54.80902
G1 X119.825 Y59.261 E54.86276
G1 X119.9 Y58.304 E54.92981
G1 X119.9 Y45.501 E55.82405
G1 X119.916 Y45.102 E55.85194
G1 X120.002 Y44.005 E55.9288
G1 X120.127 Y43.212 E55.98487
G1 X120.383 Y42.147 E56.06137
G1 X120.629 Y41.391 E56.1169
G1 X121.049 Y40.375 E56.19369
G1 X121.414 Y39.657 E56.24995
G1 X121.988 Y38.721 E56.32664
G1 X122.456 Y38.078 E56.38219
G1 X123.169 Y37.242 E56.45893
G1 X123.739 Y36.671 E56.51528
G1 X124.577 Y35.956 E56.59222
G1 X125.22 Y35.489 E56.64773
G1 X126.154 Y34.916 E56.72426
G1 X126.873 Y34.55 E56.78062
G1 X127.889 Y34.13 E56.8574
G1 X128.643 Y33.885 E56.91278
G1 X129.71 Y33.628 E56.98944
G1 X130.505 Y33.502 E57.04566
G1 X131.602 Y33.416 E57.12251
G1 X132.001 Y33.4 E57.1504
G1 X203.499 Y33.4 E62.14427
G1 X203.885 Y33.415 E62.17125
G1 X204.122 Y33.433 E62.18786
G1 X204.932 Y33.56 E62.24512
G1 X205.16 Y33.615 E62.2615
G1 X205.907 Y33.858 E62.31637
G1 X206.123 Y33.947 E62.33269
G1 X206.842 Y34.312 E62.38901
G1 X207.043 Y34.435 E62.40547
G1 X207.695 Y34.908 E62.46173
G1 X207.874 Y35.061 E62.47818
G1 X208.434 Y35.621 E62.53349
G1 X208.589 Y35.802 E62.55014
G1 X209.063 Y36.453 E62.60638
G1 X209.185 Y36.652 E62.62268
G1 X209.548 Y37.364 E62.67851
G1 X209.638 Y37.581 E62.69491
G1 X209.886 Y38.344 E62.75095
G1 X209.941 Y38.573 E62.7674
G1 X210.067 Y39.375 E62.8241
G1 X210.085 Y39.61 E62.84057
G1 X210.1 Y39.999 E62.86776
G1 X210.1 Y186.999 E73.13516
G1 X210.085 Y187.385 E73.16214
G1 X210.067 Y187.622 E73.17874
G1 X209.942 Y188.421 E73.23523
G1 X209.888 Y188.647 E73.25146
G1 X209.642 Y189.408 E73.30732
G1 X209.552 Y189.626 E73.32379
G1 X209.188 Y190.342 E73.37989
G1 X209.065 Y190.543 E73.39635
G1 X208.592 Y191.195 E73.45261
G1 X208.439 Y191.374 E73.46906
G1 X207.877 Y191.935 E73.52453
G1 X207.697 Y192.089 E73.54107
G1 X207.054 Y192.558 E73.59666
G1 X206.854 Y192.681 E73.61306
G1 X206.128 Y193.051 E73.66997
G1 X205.91 Y193.141 E73.68645
G1 X205.16 Y193.385 E73.74153
G1 X204.932 Y193.44 E73.75792
G1 X204.122 Y193.567 E73.81518
G1 X203.885 Y193.585 E73.83178
G1 X203.499 Y193.6 E73.85876
G1 X132.001 Y193.6 E78.85263
G1 X131.602 Y193.584 E78.88053
G1 X130.505 Y193.498 E78.95738
G1 X129.71 Y193.372 E79.0136
G1 X128.643 Y193.115 E79.09026
G1 X127.889 Y192.87 E79.14563
G1 X126.873 Y192.45 E79.22242
G1 X126.153 Y192.083 E79.27887
G1 X125.218 Y191.509 E79.3555
G1 X124.576 Y191.043 E79.41091
G1 X123.739 Y190.329 E79.48775
G1 X123.171 Y189.761 E79.54386
G1 X122.458 Y188.926 E79.62055
G1 X121.987 Y188.278 E79.6765
G1 X121.413 Y187.341 E79.75325
G1 X121.049 Y186.625 E79.80935
G1 X120.629 Y185.609 E79.88614
G1 X120.383 Y184.853 E79.94167
G1 X120.127 Y183.788 E80.01817
G1 X120.002 Y182.995 E80.07425
G1 X119.916 Y181.9 E80.15096
G1 X119.9 Y181.501 E80.17885
G1 X119.9 Y168.696 E81.07324
G1 X119.824 Y167.733 E81.14071
G1 X119.646 Y166.991 E81.194
G1 X119.352 Y166.282 E81.24761
G1 X118.953 Y165.63 E81.301
G1 X118.454 Y165.046 E81.35466
G1 X117.87 Y164.547 E81.40831
G1 X117.218 Y164.148 E81.4617
G1 X116.509 Y163.854 E81.51531
G1 X115.764 Y163.675 E81.56882
G1 X114.804 Y163.6 E81.63608
G1 X30.001 Y163.6 E87.55926
G1 X29.601 Y163.584 E87.58722
G1 X27.252 Y163.399 E87.75179
G1 X26.462 Y163.274 E87.80766
G1 X24.175 Y162.725 E87.97194
G1 X23.414 Y162.478 E88.02782
G1 X21.238 Y161.577 E88.19232
G1 X20.523 Y161.213 E88.24836
G1 X18.517 Y159.983 E88.41271
G1 X17.872 Y159.514 E88.46841
G1 X16.081 Y157.985 E88.63289
G1 X15.513 Y157.417 E88.689
G1 X13.985 Y155.627 E88.85338
G1 X13.516 Y154.981 E88.90914
G1 X12.286 Y152.974 E89.07355
G1 X11.922 Y152.26 E89.12953
G1 X11.021 Y150.084 E89.29403
G1 X10.774 Y149.322 E89.34998
G1 X10.226 Y147.037 E89.5141
G1 X10.101 Y146.249 E89.56983
G1 X9.916 Y143.902 E89.73426
G1 X9.9 Y143.501 E89.7623
G1 X9.9 Y83.501 E93.95307
G1 X9.916 Y83.101 E93.98103
G1 X10.101 Y80.752 E94.14561
G1 X10.226 Y79.963 E94.20141
G1 X10.774 Y77.678 E94.36553
G1 X11.021 Y76.916 E94.42148
G1 X11.922 Y74.74 E94.58598
G1 X12.286 Y74.026 E94.64196
G1 X13.516 Y72.019 E94.80637
G1 X13.985 Y71.373 E94.86213
G1 X15.513 Y69.583 E95.02651
G1 X16.08 Y69.015 E95.08256
G1 X17.872 Y67.485 E95.24714
G1 X18.519 Y67.016 E95.30296
G1 X20.524 Y65.787 E95.46722
G1 X21.238 Y65.423 E95.52319
G1 X23.414 Y64.522 E95.68769
G0 F6000 X23.643 Y65.076
G1 F900 X24.315 Y64.858 E95.73704
G1 X26.602 Y64.309 E95.90131
G1 X27.299 Y64.199 E95.9506
G1 X29.648 Y64.014 E96.11518
G1 X30.001 Y64 E96.13985
G1 X114.825 Y64 E102.06449
G1 X115.857 Y63.919 E102.13679
G1 X116.699 Y63.717 E102.19727
G1 X117.488 Y63.39 E102.25693
G1 X118.222 Y62.94 E102.31706
G1 X118.88 Y62.378 E102.3775
G1 X119.441 Y61.721 E102.43785
G1 X119.891 Y60.987 E102.49798
G1 X120.218 Y60.197 E102.5577
G1 X120.419 Y59.359 E102.61789
G1 X120.5 Y58.325 E102.69033
G1 X120.5 Y45.501 E103.58604
G1 X120.514 Y45.149 E103.61065
G1 X120.6 Y44.052 E103.6875
G1 X120.711 Y43.352 E103.73701
G1 X120.967 Y42.287 E103.81351
G1 X121.183 Y41.62 E103.86248
G1 X121.603 Y40.604 E103.93927
G1 X121.926 Y39.971 E103.98891
G1 X122.5 Y39.035 E104.0656
G1 X122.912 Y38.467 E104.11461
G1 X123.625 Y37.631 E104.19135
G1 X124.128 Y37.128 E104.24104
G1 X124.966 Y36.413 E104.31798
G1 X125.534 Y36 E104.36703
G1 X126.468 Y35.427 E104.44356
G1 X127.102 Y35.104 E104.49326
G1 X128.118 Y34.684 E104.57005
G1 X128.783 Y34.468 E104.61889
G1 X129.85 Y34.211 E104.69554
G1 X130.552 Y34.1 E104.74518
G1 X131.649 Y34.014 E104.82204
G1 X132.001 Y34 E104.84665
G1 X203.499 Y34 E109.84052
G1 X203.84 Y34.013 E109.86435
G1 X204.077 Y34.031 E109.88095
G1 X204.791 Y34.143 E109.93143
G1 X205.019 Y34.198 E109.94781
G1 X205.678 Y34.412 E109.99621
G1 X205.894 Y34.501 E110.01253
G1 X206.529 Y34.824 E110.06229
G1 X206.73 Y34.947 E110.07874
G1 X207.305 Y35.364 E110.12836
G1 X207.484 Y35.517 E110.1448
G1 X207.978 Y36.011 E110.1936
G1 X208.133 Y36.192 E110.21024
G1 X208.551 Y36.767 E110.2599
G1 X208.673 Y36.966 E110.2762
G1 X208.994 Y37.594 E110.32546
G1 X209.084 Y37.811 E110.34187
G1 X209.303 Y38.484 E110.3913
G1 X209.358 Y38.713 E110.40775
G1 X209.469 Y39.42 E110.45774
G1 X209.487 Y39.655 E110.4742
G1 X209.5 Y39.999 E110.49824
G1 X209.5 Y186.999 E120.76565
G1 X209.487 Y187.34 E120.78948
G1 X209.469 Y187.577 E120.80608
G1 X209.359 Y188.282 E120.85592
G1 X209.305 Y188.508 E120.87215
G1 X209.087 Y189.179 E120.92143
G1 X208.997 Y189.397 E120.9379
G1 X208.676 Y190.029 E120.98741
G1 X208.553 Y190.23 E121.00387
G1 X208.136 Y190.805 E121.05348
G1 X207.983 Y190.984 E121.06993
G1 X207.487 Y191.479 E121.11887
G1 X207.307 Y191.633 E121.13542
G1 X206.739 Y192.047 E121.18451
G1 X206.539 Y192.17 E121.20091
G1 X205.899 Y192.496 E121.25108
G1 X205.681 Y192.586 E121.26755
G1 X205.019 Y192.802 E121.31619
G1 X204.791 Y192.857 E121.33257
G1 X204.077 Y192.969 E121.38305
G1 X203.84 Y192.987 E121.39965
G1 X203.499 Y193 E121.42349
G1 X132.001 Y193 E126.41736
G1 X131.649 Y192.986 E126.44196
G1 X130.552 Y192.9 E126.51882
G1 X129.85 Y192.789 E126.56846
G1 X128.783 Y192.532 E126.64512
G1 X128.118 Y192.316 E126.69395
G1 X127.102 Y191.896 E126.77074
G1 X126.467 Y191.572 E126.82053
G1 X125.532 Y190.998 E126.89717
G1 X124.966 Y190.587 E126.94602
G1 X124.129 Y189.873 E127.02286
G1 X123.627 Y189.371 E127.07245
G1 X122.914 Y188.536 E127.14914
G1 X122.499 Y187.965 E127.19844
G1 X121.925 Y187.028 E127.27519
G1 X121.603 Y186.396 E127.32474
G1 X121.183 Y185.38 E127.40152
G1 X120.967 Y184.713 E127.45049
G1 X120.711 Y183.648 E127.527
G1 X120.6 Y182.948 E127.5765
G1 X120.514 Y181.853 E127.65322
G1 X120.5 Y181.501 E127.67782
G1 X120.5 Y168.674 E128.57374
G1 X120.419 Y167.643 E128.64598
G1 X120.217 Y166.802 E128.70639
G1 X119.888 Y166.007 E128.76648
G1 X119.44 Y165.277 E128.82631
G1 X118.882 Y164.623 E128.88635
G1 X118.221 Y164.059 E128.94704
G1 X117.493 Y163.613 E129.00668
G1 X116.694 Y163.282 E129.06708
G1 X115.857 Y163.081 E129.12721
G1 X114.825 Y163 E129.19951
G1 X30.001 Y163 E135.12415
G1 X29.648 Y162.986 E135.14882
G1 X27.299 Y162.801 E135.3134
G1 X26.602 Y162.691 E135.36269
G1 X24.315 Y162.142 E135.52696
G1 X23.643 Y161.924 E135.57631
G1 X21.467 Y161.023 E135.74081
G1 X20.837 Y160.701 E135.79023
G1 X18.831 Y159.471 E135.95458
G1 X18.261 Y159.057 E136.00378
G1 X16.47 Y157.528 E136.16826
G1 X15.969 Y157.028 E136.2177
G1 X14.441 Y155.238 E136.38208
G1 X14.027 Y154.667 E136.43135
G1 X12.797 Y152.66 E136.59576
G1 X12.476 Y152.031 E136.64508
G1 X11.575 Y149.855 E136.80958
G1 X11.357 Y149.182 E136.85899
G1 X10.809 Y146.897 E137.02312
G1 X10.699 Y146.202 E137.07226
G1 X10.514 Y143.855 E137.2367
G1 X10.5 Y143.501 E137.26145
G1 X10.5 Y83.501 E141.45222
G1 X10.514 Y83.148 E141.4769
G1 X10.699 Y80.799 E141.64148
G1 X10.809 Y80.103 E141.69069
G1 X11.357 Y77.818 E141.85482
G1 X11.575 Y77.145 E141.90423
G1 X12.476 Y74.969 E142.06873
G1 X12.797 Y74.34 E142.11805
G1 X14.027 Y72.333 E142.28246
G1 X14.441 Y71.762 E142.33173
G1 X15.969 Y69.972 E142.49611
G1 X16.47 Y69.472 E142.54555
G1 X18.262 Y67.942 E142.71013
G1 X18.832 Y67.527 E142.75937
G1 X20.837 Y66.298 E142.92363
G1 X21.467 Y65.977 E142.97301
G1 X23.643 Y65.076 E143.13751
G0 F6000 X23.873 Y65.631
G1 F900 X24.455 Y65.442 E143.18025
G1 X26.742 Y64.893 E143.34453
G1 X27.346 Y64.797 E143.38725
G1 X29.695 Y64.612 E143.55182
G1 X30.001 Y64.6 E143.57321
G1 X114.847 Y64.6 E149.49939
G1 X115.955 Y64.513 E149.57702
G1 X116.881 Y64.291 E149.64353
G1 X117.76 Y63.927 E149.70998
G1 X118.582 Y63.423 E149.77733
G1 X119.306 Y62.804 E149.84386
G1 X119.926 Y62.079 E149.91049
G1 X120.426 Y61.262 E149.97739
G1 X120.79 Y60.384 E150.04378
G1 X121.013 Y59.451 E150.11078
G1 X121.1 Y58.347 E150.18813
G1 X121.1 Y45.501 E151.08537
G1 X121.112 Y45.196 E151.10669
G1 X121.198 Y44.099 E151.18355
G1 X121.294 Y43.492 E151.22647
G1 X121.55 Y42.427 E151.30298
G1 X121.738 Y41.849 E151.34543
